Simply-Blue-Circles/symbolic/status/avatar-default-symbolic.svg

<svg xmlns="http://www.w3.org/2000/svg" width="24" height="24" viewBox="0 0 6.35 6.35"><path d="M3.18.45c-.59 0-1.07.42-1.07.97 0 .18.03.42.14.95.06.15.4.45.58.65a.42.42 0 0 1-.04.23c-.62.2-1.72.6-1.79.86L.85 5.48c1.08.6 3.61.57 4.65 0-.04-.28-.07-1.1-.1-1.37-.29-.33-1-.53-1.78-.86a.34.34 0 0 1-.07-.17c.15-.18.52-.56.56-.72.14-.56.14-.76.16-.96 0-.53-.48-.97-1.09-.97z" fill="gray"/></svg>

<?xml version="1.0" encoding="UTF-8" standalone="no"?>
<svg
   xmlns:dc="http://purl.org/dc/elements/1.1/"
   xmlns:cc="http://creativecommons.org/ns#"
   xmlns:rdf="http://www.w3.org/1999/02/22-rdf-syntax-ns#"
   xmlns:svg="http://www.w3.org/2000/svg"
   xmlns="http://www.w3.org/2000/svg"
   xmlns:sodipodi="http://sodipodi.sourceforge.net/DTD/sodipodi-0.dtd"
   xmlns:inkscape="http://www.inkscape.org/namespaces/inkscape"
   width="24"
   height="24"
   viewBox="0 0 6.35 6.35"
   version="1.1"
   id="svg4"
   sodipodi:docname="avatar-default-symbolic.svg"
   inkscape:version="0.92.4 (5da689c313, 2019-01-14)">
  <metadata
     id="metadata10">
    <rdf:RDF>
      <cc:Work
         rdf:about="">
        <dc:format>image/svg+xml</dc:format>
        <dc:type
           rdf:resource="http://purl.org/dc/dcmitype/StillImage" />
        <dc:title></dc:title>
      </cc:Work>
    </rdf:RDF>
  </metadata>
  <defs
     id="defs8" />
  <sodipodi:namedview
     pagecolor="#ffffff"
     bordercolor="#666666"
     borderopacity="1"
     objecttolerance="10"
     gridtolerance="10"
     guidetolerance="10"
     inkscape:pageopacity="0"
     inkscape:pageshadow="2"
     inkscape:window-width="1085"
     inkscape:window-height="480"
     id="namedview6"
     showgrid="false"
     inkscape:zoom="9.8333333"
     inkscape:cx="1.0677966"
     inkscape:cy="12"
     inkscape:window-x="0"
     inkscape:window-y="25"
     inkscape:window-maximized="0"
     inkscape:current-layer="svg4" />
  <path
     d="m 3.18,0.45 c -0.59,0 -1.07,0.42 -1.07,0.97 0,0.18 0.03,0.42 0.14,0.95 0.06,0.15 0.4,0.45 0.58,0.65 A 0.42,0.42 0 0 1 2.79,3.25 C 2.17,3.45 1.07,3.85 1,4.11 L 0.85,5.48 c 1.08,0.6 3.61,0.57 4.65,0 C 5.46,5.2 5.43,4.38 5.4,4.11 5.11,3.78 4.4,3.58 3.62,3.25 A 0.34,0.34 0 0 1 3.55,3.08 C 3.7,2.9 4.07,2.52 4.11,2.36 4.25,1.8 4.25,1.6 4.27,1.4 4.27,0.87 3.79,0.43 3.18,0.43 Z"
     id="path2"
     inkscape:connector-curvature="0"
     style="fill:#808080" />
</svg>
